SVG/119-stage-review.svg

<?xml version="1.0" encoding="UTF-8" standalone="no"?>
<svg width="14px" height="15px" viewBox="0 0 14 15" version="1.1" xmlns="http://www.w3.org/2000/svg" xmlns:xlink="http://www.w3.org/1999/xlink">
    <!-- Generator: Sketch 3.8.2 (29753) - http://www.bohemiancoding.com/sketch -->
    <title>119-stage-review</title>
    <desc>Created with Sketch.</desc>
    <defs></defs>
    <g id="Page-1" stroke="none" stroke-width="1" fill="none" fill-rule="evenodd">
        <g id="119-stage-review" fill="#000000">
            <g id="Layer_2">
                <g id="Icons">
                    <path d="M13,0 L1,0 C0.44771525,-3.38176876e-17 6.76353751e-17,0.44771525 0,1 L0,11 C6.76353751e-17,11.5522847 0.44771525,12 1,12 L3,12 C2.89742408,12.4392925 2.75344707,12.8678752 2.57,13.28 C2.42915771,13.4847881 2.42915771,13.7552119 2.57,13.96 C2.57,13.96 2.68,14.1 2.76,14.11 C2.85985898,14.1175106 2.96014102,14.1175106 3.06,14.11 C4.49499865,13.6622729 5.831988,12.9462709 7,12 L13,12 C13.5522847,12 14,11.5522847 14,11 L14,1 C14,0.44771525 13.5522847,3.38176876e-17 13,0 L13,0 Z M1,11 L1,1 L13,1 L13,11 L6.64,11 L6.38,11.2 C6.08,11.43 5.69,11.71 5.26,12 C4.80795345,12.2971373 4.33694713,12.564375 3.85,12.8 C3.93742057,12.538213 4.00757123,12.2709724 4.06,12 C4.13213443,11.671047 4.17563043,11.3364624 4.19,11 L1,11 Z" id="Shape"></path>
                    <path d="M7,4.39 L7.41,5.22 L7.57,5.55 L7.93,5.6 L8.85,5.73 L8.19,6.38 L7.93,6.64 L8,7 L8.16,7.91 L7.34,7.48 L7,7.31 L6.67,7.48 L5.85,7.91 L6,7 L6.06,6.64 L5.8,6.38 L5.14,5.73 L6.06,5.6 L6.42,5.55 L6.58,5.22 L7,4.39 L7,4.39 Z M7,2.81 L6,4.91 L3.68,5.25 L5.32,6.88 L4.92,9.19 L7,8.1 L9.07,9.19 L8.67,6.88 L10.35,5.24 L8,4.91 L7,2.81 L7,2.81 Z" id="Shape"></path>
                </g>
            </g>
        </g>
    </g>
</svg>

<svg xmlns="http://www.w3.org/2000/svg" viewBox="0 0 14 14.13"><title>Asset 7</title><g id="Layer_2" data-name="Layer 2"><g id="Icons"><path d="M13,0H1A1,1,0,0,0,0,1V11a1,1,0,0,0,1,1H3a7.14,7.14,0,0,1-.43,1.28.6.6,0,0,0,0,.68s.11.14.19.15a2,2,0,0,0,.3,0A11.88,11.88,0,0,0,7,12h6a1,1,0,0,0,1-1V1a1,1,0,0,0-1-1ZM1,11V1H13V11H6.64l-.26.2c-.3.23-.69.51-1.12.8a12.4,12.4,0,0,1-1.41.8,6.31,6.31,0,0,0,.21-.8,5.83,5.83,0,0,0,.13-1Z"/><path d="M7,4.39l.41.83.16.33.36.05.92.13-.66.65-.26.26L8,7l.16.91-.82-.43L7,7.31l-.33.17-.82.43L6,7l.06-.36-.26-.26-.66-.65.92-.13.36-.05.16-.33L7,4.39M7,2.81,6,4.91l-2.32.34L5.32,6.88l-.4,2.31L7,8.1,9.07,9.19l-.4-2.31,1.68-1.64L8,4.91,7,2.81Z"/></g></g></svg>
